X: 24709
T: MacQuellin's
R: jig
M: 6/8
K: Gmajor
|:A|"G"~B3~G3|EFG D2e|(dcB) BAG|"D"{c}BAA AGA|
"G"~B3~G3|EFG D2e|"D7"dcB AGF|1 "G"GBA G2:|2 "G"GBA GBd||
|:"Em"~g3~f3|"C"e3efg|"D"~d3~c3|"G"B3Bcd|"Em"eBB {c}BAB|
EGB cde|1 "D7"dcB AGA|"G"BcB Bcd:|2 "D7"dcB AGF|"G"GBA G2||

